X:6728
T:Hanly's
T:Patsy Hanley's
R:reel
H:Also played in D, see #729
D:Desi Wilkinson: The Three Piece Flute
D:Marcas \'O Murch\'u: \'O Bh\'eal go B\'eal
Z:id:hn-reel-668
M:C|
K:C
GAEG GAGA|(3Bcd ed cA~A2|EG~G2 A2~A2|cA{c}GE {A}EDD2:|
|:eg~g2 {a}gede|g2{c'}ae {a}ged2|1 eg~g2 {a}ged2|
(3Bcd ed cA~A2:|2 g2eg {c'}ageg|{a}gede cA~A2||
"variations"
GAEG ~A2GA|cded cA~A2|GAEG ~A2GA|cA{c}GE {A}EDD2|
~G2EG ~A2G2|(3Bcd {a}ed cA~A2|EG~G2 ~A2GA|cA{c}GE {A}EDD2||
eg{a}ga {b}gede|~g2ag {a}gede|eg{a}ga gede|cded cA~A2|
eg{a}ga {b}gede|~g2ag {a}gede|g2ea {c'}agea|{b}gede cA~A2||
"more variations"
GAEG (3ABA GA|cd{a}ed cAGE|(3GAG EG (3ABA GA|cAGE D3E|
(3GAG EG A2{c}AB|c2{a}ed cAGE|~G2EG A2GA|cAGE D4||
eg{a}ga gede|~g2ag {a}ged2|e {a}ged2|e